img/icons/page/layout-pages-horizontal.svg

<svg viewBox="0 0 16 16" xmlns="http://www.w3.org/2000/svg"><path d="m0 15h3.8c1.12 0 1.68 0 2.11-0.218 0.376-0.192 0.682-0.498 0.874-0.874 0.218-0.428 0.218-0.988 0.218-2.11v-7.6c0-1.12 0-1.68-0.218-2.11-0.192-0.376-0.498-0.682-0.874-0.874-0.428-0.218-0.988-0.218-2.11-0.218l-3.8 5e-5v1l3.8-8e-5c0.577 0 0.949 7.8e-4 1.23 0.0239 0.272 0.0222 0.372 0.0599 0.422 0.0851 0.188 0.0959 0.341 0.249 0.437 0.437 0.0252 0.0494 0.0629 0.15 0.0851 0.422 0.0232 0.283 0.0239 0.656 0.0239 1.23v7.6c0 0.577-7.8e-4 0.949-0.0239 1.23-0.0222 0.272-0.0599 0.372-0.0851 0.422-0.0959 0.188-0.249 0.341-0.437 0.437-0.0494 0.0251-0.15 0.0628-0.422 0.085-0.283 0.0232-0.656 0.0239-1.23 0.0239h-3.8v1z" fill="#000"/><path d="m16 1-3.8-5e-5c-1.12 0-1.68 0-2.11 0.218-0.376 0.192-0.682 0.498-0.874 0.874-0.218 0.428-0.218 0.988-0.218 2.11v7.6c0 1.12 0 1.68 0.218 2.11 0.192 0.376 0.498 0.682 0.874 0.874 0.428 0.218 0.988 0.218 2.11 0.218h3.8v-1h-3.8c-0.577 0-0.949-7e-4 -1.23-0.0239-0.272-0.0222-0.372-0.0599-0.422-0.085-0.188-0.0959-0.341-0.249-0.437-0.437-0.0252-0.0494-0.0629-0.15-0.0851-0.422-0.0231-0.283-0.0239-0.656-0.0239-1.23v-7.6c0-0.577 8e-4 -0.949 0.0239-1.23 0.0222-0.272 0.0599-0.372 0.0851-0.422 0.0959-0.188 0.249-0.341 0.437-0.437 0.0495-0.0252 0.15-0.0629 0.422-0.0851 0.283-0.0232 0.656-0.0239 1.23-0.0239l3.8 8e-5v-1z" fill="#000"/><path d="M4 4.5C4 4.22386 3.77614 4 3.5 4H0V5H3.5C3.77614 5 4 4.77614 4 4.5Z" fill="#000"/><path d="m3.5 7c0.276 0 0.5 0.224 0.5 0.5s-0.224 0.5-0.5 0.5h-3.5v-1h3.5z" fill="#000"/><path d="m4 10.5c0-0.276-0.224-0.5-0.5-0.5h-3.5v1h3.5c0.276 0 0.5-0.224 0.5-0.5z" fill="#000"/><path d="m12.5 4c-0.276 0-0.5 0.224-0.5 0.5s0.224 0.5 0.5 0.5h3.5v-1h-3.5z" fill="#000"/><path d="m12 7.5c0-0.276 0.224-0.5 0.5-0.5h3.5v1h-3.5c-0.276 0-0.5-0.224-0.5-0.5z" fill="#000"/><path d="m12.5 10c-0.276 0-0.5 0.224-0.5 0.5s0.224 0.5 0.5 0.5h3.5v-1h-3.5z" fill="#000"/></svg>

<svg xmlns="http://www.w3.org/2000/svg" viewBox="0 0 16 16" fill="none">
  <path fill="#fff"
    d="M0 15h3.8c1.12 0 1.68 0 2.108-.218a2 2 0 0 0 .874-.874C7 13.48 7 12.92 7 11.8V4.2c0-1.12 0-1.68-.218-2.108a2 2 0 0 0-.874-.874C5.48 1 4.92 1 3.8 1H0v1h3.8c.577 0 .949.001 1.232.024.272.022.373.06.422.085a1 1 0 0 1 .437.437c.025.05.063.15.085.422C6 3.251 6 3.624 6 4.2v7.6c0 .577 0 .95-.024 1.232-.022.272-.06.373-.085.422a1 1 0 0 1-.437.437c-.05.025-.15.063-.422.085C4.75 14 4.377 14 3.8 14H0v1ZM16 1h-3.8c-1.12 0-1.68 0-2.108.218a2 2 0 0 0-.874.874C9 2.52 9 3.08 9 4.2v7.6c0 1.12 0 1.68.218 2.108a2 2 0 0 0 .874.874C10.52 15 11.08 15 12.2 15H16v-1h-3.8c-.577 0-.949 0-1.232-.024-.272-.022-.373-.06-.422-.085a1 1 0 0 1-.437-.437c-.025-.05-.063-.15-.085-.422C10 12.75 10 12.377 10 11.8V4.2c0-.576 0-.949.024-1.232.022-.272.06-.372.085-.422a1 1 0 0 1 .437-.437c.05-.025.15-.063.422-.085C11.25 2.001 11.623 2 12.2 2H16V1Z" />
  <path fill="#fff"
    d="M4 4.5a.5.5 0 0 0-.5-.5H0v1h3.5a.5.5 0 0 0 .5-.5ZM3.5 7a.5.5 0 0 1 0 1H0V7h3.5ZM4 10.5a.5.5 0 0 0-.5-.5H0v1h3.5a.5.5 0 0 0 .5-.5ZM12.5 4a.5.5 0 0 0 0 1H16V4h-3.5ZM12 7.5a.5.5 0 0 1 .5-.5H16v1h-3.5a.5.5 0 0 1-.5-.5ZM12.5 10a.5.5 0 0 0 0 1H16v-1h-3.5Z" />
</svg>
